assets/img/braze_icons/monitor-03.svg

<svg fill="none" height="24" viewBox="0 0 24 24" width="24" xmlns="http://www.w3.org/2000/svg"><g fill="#801ed7"><path d="m17.2413 2h-10.4826c-.80496-.00001-1.46933-.00002-2.01052.04419-.5621.04593-1.07881.14449-1.56414.39179-.75265.38349-1.36457.99541-1.74806 1.74806-.2473.48533-.34586 1.00204-.39179 1.56414-.044212.54119-.044202 1.20554-.04419 2.01051v3.64131c0 .5601 0 .8401.10899 1.054.09588.1882.24886.3411.43702.437.21391.109.49394.109 1.05399.109h18.8c.5601 0 .8401 0 1.054-.109.1882-.0959.3411-.2488.437-.437.109-.2139.109-.4939.109-1.054v-3.64132c0-.80496 0-1.46931-.0442-2.0105-.0459-.5621-.1445-1.07881-.3918-1.56414-.3835-.75265-.9954-1.36457-1.748-1.74806-.4854-.2473-1.0021-.34586-1.5642-.39179-.5412-.04421-1.2055-.0442-2.0105-.04419z"/><path d="m22.8805 15.8398c.0465-.2549.0697-.3823.0243-.5089-.037-.1029-.1252-.2086-.2198-.2635-.1163-.0674-.2634-.0674-.5575-.0674h-20.25497c-.29414 0-.44121 0-.55752.0674-.09462.0549-.18281.1606-.21979.2635-.04546.1266-.02222.254.02427.5089.06158.3376.15905.6672.31649.9762.38349.7526.99541 1.3645 1.74806 1.748.48533.2473 1.00204.3459 1.56414.3918.54119.0442 1.20554.0442 2.0105.0442h10.48262c.805 0 1.4693 0 2.0105-.0442.5621-.0459 1.0788-.1445 1.5642-.3918.7526-.3835 1.3645-.9954 1.748-1.748.1575-.309.2549-.6386.3165-.9762z"/><path d="m8 20c-.55228 0-1 .4477-1 1s.44772 1 1 1h8c.5523 0 1-.4477 1-1s-.4477-1-1-1z"/></g></svg>

<svg width="24" height="24" viewBox="0 0 24 24" fill="none" xmlns="http://www.w3.org/2000/svg">
<path d="M17.2413 2H6.7587C5.95374 1.99999 5.28937 1.99998 4.74818 2.04419C4.18608 2.09012 3.66937 2.18868 3.18404 2.43598C2.43139 2.81947 1.81947 3.43139 1.43598 4.18404C1.18868 4.66937 1.09012 5.18608 1.04419 5.74818C0.999978 6.28937 0.999988 6.95372 1 7.75869V11.4C1 11.9601 1 12.2401 1.10899 12.454C1.20487 12.6422 1.35785 12.7951 1.54601 12.891C1.75992 13 2.03995 13 2.6 13H21.4C21.9601 13 22.2401 13 22.454 12.891C22.6422 12.7951 22.7951 12.6422 22.891 12.454C23 12.2401 23 11.9601 23 11.4V7.75868C23 6.95372 23 6.28937 22.9558 5.74818C22.9099 5.18608 22.8113 4.66937 22.564 4.18404C22.1805 3.43139 21.5686 2.81947 20.816 2.43598C20.3306 2.18868 19.8139 2.09012 19.2518 2.04419C18.7106 1.99998 18.0463 1.99999 17.2413 2Z" fill="#801ED7"/>
<path d="M22.8805 15.8398C22.927 15.5849 22.9502 15.4575 22.9048 15.3309C22.8678 15.228 22.7796 15.1223 22.685 15.0674C22.5687 15 22.4216 15 22.1275 15H1.87253C1.57839 15 1.43132 15 1.31501 15.0674C1.22039 15.1223 1.1322 15.228 1.09522 15.3309C1.04976 15.4575 1.073 15.5849 1.11949 15.8398C1.18107 16.1774 1.27854 16.507 1.43598 16.816C1.81947 17.5686 2.43139 18.1805 3.18404 18.564C3.66937 18.8113 4.18608 18.9099 4.74818 18.9558C5.28937 19 5.95372 19 6.75868 19H17.2413C18.0463 19 18.7106 19 19.2518 18.9558C19.8139 18.9099 20.3306 18.8113 20.816 18.564C21.5686 18.1805 22.1805 17.5686 22.564 16.816C22.7215 16.507 22.8189 16.1774 22.8805 15.8398Z" fill="#801ED7"/>
<path d="M8 20C7.44772 20 7 20.4477 7 21C7 21.5523 7.44772 22 8 22H16C16.5523 22 17 21.5523 17 21C17 20.4477 16.5523 20 16 20H8Z" fill="#801ED7"/>
</svg>
